2 Export/Icons/Rounded/Delete All.svg

<svg xmlns="http://www.w3.org/2000/svg" xmlns:xlink="http://www.w3.org/1999/xlink" width="24" height="24" viewBox="0 0 24 24">
  <defs>
    <path id="delete-all-a" d="M6 19c0 1.1.9 2 2 2h8c1.1 0 2-.9 2-2V9c0-1.1-.9-2-2-2H8c-1.1 0-2 .9-2 2v10zm3.17-7.83a.996.996 0 0 1 1.41 0L12 12.59l1.42-1.42a.996.996 0 1 1 1.41 1.41L13.41 14l1.42 1.42a.996.996 0 1 1-1.41 1.41L12 15.41l-1.42 1.42a.996.996 0 1 1-1.41-1.41L10.59 14l-1.42-1.42a.996.996 0 0 1 0-1.41zM15.5 4l-.71-.71c-.18-.18-.44-.29-.7-.29H9.91c-.26 0-.52.11-.7.29L8.5 4H6c-.55 0-1 .45-1 1s.45 1 1 1h12c.55 0 1-.45 1-1s-.45-1-1-1h-2.5z"/>
  </defs>
  <g fill="none" fill-rule="evenodd">
    <polygon points="0 0 24 0 24 24 0 24"/>
    <mask id="delete-all-b" fill="#fff">
      <use xlink:href="#delete-all-a"/>
    </mask>
    <use fill="#000" xlink:href="#delete-all-a"/>
    <g fill="#000" mask="url(#delete-all-b)">
      <rect width="24" height="24"/>
    </g>
  </g>
</svg>

<svg xmlns="http://www.w3.org/2000/svg" xmlns:xlink="http://www.w3.org/1999/xlink" width="24" height="24" viewBox="0 0 24 24">
  <defs>
    <path id="delete-all-a" d="M6,19 C6,20.1 6.9,21 8,21 L16,21 C17.1,21 18,20.1 18,19 L18,9 C18,7.9 17.1,7 16,7 L8,7 C6.9,7 6,7.9 6,9 L6,19 Z M9.17,11.17 C9.56,10.78 10.19,10.78 10.58,11.17 L12,12.59 L13.42,11.17 C13.81,10.78 14.44,10.78 14.83,11.17 C15.22,11.56 15.22,12.19 14.83,12.58 L13.41,14 L14.83,15.42 C15.22,15.81 15.22,16.44 14.83,16.83 C14.44,17.22 13.81,17.22 13.42,16.83 L12,15.41 L10.58,16.83 C10.19,17.22 9.56,17.22 9.17,16.83 C8.78,16.44 8.78,15.81 9.17,15.42 L10.59,14 L9.17,12.58 C8.78,12.2 8.78,11.56 9.17,11.17 Z M15.5,4 L14.79,3.29 C14.61,3.11 14.35,3 14.09,3 L9.91,3 C9.65,3 9.39,3.11 9.21,3.29 L8.5,4 L6,4 C5.45,4 5,4.45 5,5 C5,5.55 5.45,6 6,6 L18,6 C18.55,6 19,5.55 19,5 C19,4.45 18.55,4 18,4 L15.5,4 Z"/>
  </defs>
  <g fill="none" fill-rule="evenodd">
    <polygon points="0 0 24 0 24 24 0 24"/>
    <mask id="delete-all-b" fill="#fff">
      <use xlink:href="#delete-all-a"/>
    </mask>
    <use fill="#000" xlink:href="#delete-all-a"/>
    <g fill="#000" mask="url(#delete-all-b)">
      <rect width="24" height="24"/>
    </g>
  </g>
</svg>
